svgs/light/unlock.svg

<svg xmlns="http://www.w3.org/2000/svg" viewBox="0 0 448 512"><!--! Font Awesome Pro 6.6.0 by @fontawesome - https://fontawesome.com License - https://fontawesome.com/license (Commercial License) Copyright 2024 Fonticons, Inc. --><path d="M128 128c0-53 43-96 96-96c43.5 0 80.2 28.9 92 68.6c2.5 8.5 11.4 13.3 19.9 10.8s13.3-11.4 10.8-19.9C331 38.6 282 0 224 0C153.3 0 96 57.3 96 128l0 64-16 0c-44.2 0-80 35.8-80 80L0 432c0 44.2 35.8 80 80 80l288 0c44.2 0 80-35.8 80-80l0-160c0-44.2-35.8-80-80-80l-240 0 0-64zM32 272c0-26.5 21.5-48 48-48l288 0c26.5 0 48 21.5 48 48l0 160c0 26.5-21.5 48-48 48L80 480c-26.5 0-48-21.5-48-48l0-160z"/></svg>

<svg xmlns="http://www.w3.org/2000/svg" viewBox="0 0 448 512"><!--! Font Awesome Pro 6.4.2 by @fontawesome - https://fontawesome.com License - https://fontawesome.com/license (Commercial License) Copyright 2023 Fonticons, Inc. --><path d="M128 128c0-53 43-96 96-96c43.5 0 80.2 28.9 92 68.6c2.5 8.5 11.4 13.3 19.9 10.8s13.3-11.4 10.8-19.9C331 38.6 282 0 224 0C153.3 0 96 57.3 96 128v64H80c-44.2 0-80 35.8-80 80V432c0 44.2 35.8 80 80 80H368c44.2 0 80-35.8 80-80V272c0-44.2-35.8-80-80-80H128V128zM32 272c0-26.5 21.5-48 48-48H368c26.5 0 48 21.5 48 48V432c0 26.5-21.5 48-48 48H80c-26.5 0-48-21.5-48-48V272z"/></svg>
